X:171 
T:Queen of the Ceili* (reel), The
B:CRE5.207 (gan ainm)
F:file ID: cre.5/171queen
M:4/4
Q:180
R:reel
K:D
B3c dBAB|BGAG FAAF|B2Bc dcde|faag fded|
B3c dBAB|BGAG FAAF|B2Bc dcde|faag fddf||
a2fd Bded|fded Bdef|a2fd Bded|egfd eddf|
a2fd Bded|fded Bdef|a3f e2dA|Bdag fdd2|]

%%%

